X: 20466
T: John Joe Pidgeon's
R: polka
M: 2/4
K: Dmajor
|:A,A, A,A,|D2 EF|GB/G/ FE|DE FG|
A,A, A,A,|D2 EF|GB/G/ FE|ED D2:|
|:AB/c/ dd|cd E2|Ec BA|FE FA|
Ac dd|cd E2|Ec BA|FE D2:|

